assets/images/arrow.svg

<svg width="24" height="24" viewBox="0 0 24 24" fill="none" xmlns="http://www.w3.org/2000/svg">
<path d="M18.6775 9.26768C18.4804 9.09628 18.213 9 17.9342 9C17.6554 9 17.388 9.09628 17.1908 9.26768L11.9864 13.7932L6.782 9.26768C6.5837 9.10114 6.31812 9.00899 6.04245 9.01107C5.76677 9.01316 5.50307 9.10931 5.30813 9.27882C5.11319 9.44832 5.00262 9.67763 5.00022 9.91734C4.99783 10.1571 5.1038 10.388 5.29532 10.5604L11.2431 15.7323C11.4402 15.9037 11.7076 16 11.9864 16C12.2652 16 12.5326 15.9037 12.7298 15.7323L18.6775 10.5604C18.8746 10.389 18.9854 10.1565 18.9854 9.91405C18.9854 9.67163 18.8746 9.43913 18.6775 9.26768V9.26768Z" fill="#9E9EA0"/>
</svg>

<svg width="24" height="24" fill="none" xmlns="http://www.w3.org/2000/svg"><path d="M18.677 9.268A1.136 1.136 0 0017.934 9c-.279 0-.546.096-.743.268l-5.205 4.525-5.204-4.525a1.14 1.14 0 00-.74-.257 1.133 1.133 0 00-.734.268.86.86 0 00-.308.638.857.857 0 00.295.643l5.948 5.172c.197.172.465.268.743.268.28 0 .547-.096.744-.268l5.947-5.172a.858.858 0 00.308-.646.858.858 0 00-.308-.646z" fill="#9E9EA0"/></svg>
